X:52
T:The New Kid
C:Tradformer + Sturm
M:6/8
K:Edor
B,EE GFE|FAB def|g3 edB|c2A GED|B,EE GFE|FAB def|g3 edB|AGF E2D:|
EGB e3|Be^d e=dB|A3 Bde|fed B2d|efe gfe|agf bag|=c'bg e=cB|AGF E2D:|

